static/img/kroki/7636cb29835f5748c86288d3e31a4442.svg

<?xml version="1.0" encoding="us-ascii" standalone="no"?><svg xmlns="http://www.w3.org/2000/svg" xmlns:xlink="http://www.w3.org/1999/xlink" contentStyleType="text/css" height="954px" preserveAspectRatio="none" style="width:545px;height:954px;" version="1.1" viewBox="0 0 545 954" width="545px" zoomAndPan="magnify"><defs/><g><!--class azure_network_virtual_appliance_sku--><g id="elem_azure_network_virtual_appliance_sku"><rect codeLine="23" fill="#3D176E" height="126.6797" id="azure_network_virtual_appliance_sku" rx="2.5" ry="2.5" style="stroke:#000D19;stroke-width:0.5;" width="531" x="7" y="660.14"/><ellipse cx="105.75" cy="680.0345" fill="#ADD1B2" rx="11" ry="11" style="stroke:#181818;stroke-width:1.0;"/><path d="M108.7188,685.6752 Q108.1406,685.972 107.5,686.1127 Q106.8594,686.2689 106.1563,686.2689 Q103.6563,686.2689 102.3281,684.6283 Q101.0156,682.972 101.0156,679.847 Q101.0156,676.722 102.3281,675.0658 Q103.6563,673.4095 106.1563,673.4095 Q106.8594,673.4095 107.5,673.5658 Q108.1563,673.722 108.7188,674.0189 L108.7188,676.7377 Q108.0938,676.1595 107.5,675.8939 Q106.9063,675.6127 106.2813,675.6127 Q104.9375,675.6127 104.25,676.6908 Q103.5625,677.7533 103.5625,679.847 Q103.5625,681.9408 104.25,683.0189 Q104.9375,684.0814 106.2813,684.0814 Q106.9063,684.0814 107.5,683.8158 Q108.0938,683.5345 108.7188,682.9564 L108.7188,685.6752 Z " fill="#000000"/><text fill="#D9B8FF" font-family="Helvetica" font-size="17" lengthAdjust="spacing" textLength="315" x="131.25" y="685.9198">azure_network_virtual_appliance_sku</text><line style="stroke:#000D19;stroke-width:0.5;" x1="8" x2="537" y1="699.9291" y2="699.9291"/><text fill="#D9B8FF" font-family="sans-serif" font-size="14" font-weight="bold" lengthAdjust="spacing" textLength="162" x="18" y="721.9242">available_scale_units</text><text fill="#D9B8FF" font-family="sans-serif" font-size="14" lengthAdjust="spacing" textLength="347" x="180" y="721.9242">: azure_network_virtual_appliance_sku_instances[]</text><text fill="#D9B8FF" font-family="sans-serif" font-size="14" font-weight="bold" lengthAdjust="spacing" textLength="143" x="18" y="748.2211">available_versions</text><text fill="#D9B8FF" font-family="sans-serif" font-size="14" lengthAdjust="spacing" textLength="58" x="161" y="748.2211">: string[]</text><text fill="#D9B8FF" font-family="sans-serif" font-size="14" font-weight="bold" lengthAdjust="spacing" textLength="56" x="18" y="774.5179">vendor</text><text fill="#D9B8FF" font-family="sans-serif" font-size="14" lengthAdjust="spacing" textLength="48" x="74" y="774.5179">: string</text></g><!--class azure_network_virtual_appliance_sku_instances--><g id="elem_azure_network_virtual_appliance_sku_instances"><rect codeLine="28" fill="#3D176E" height="100.3828" id="azure_network_virtual_appliance_sku_instances" rx="2.5" ry="2.5" style="stroke:#000D19;stroke-width:0.5;" width="444" x="50.5" y="846.82"/><ellipse cx="65.5" cy="866.7145" fill="#ADD1B2" rx="11" ry="11" style="stroke:#181818;stroke-width:1.0;"/><path d="M68.4688,872.3552 Q67.8906,872.652 67.25,872.7927 Q66.6094,872.9489 65.9063,872.9489 Q63.4063,872.9489 62.0781,871.3083 Q60.7656,869.652 60.7656,866.527 Q60.7656,863.402 62.0781,861.7458 Q63.4063,860.0895 65.9063,860.0895 Q66.6094,860.0895 67.25,860.2458 Q67.9063,860.402 68.4688,860.6989 L68.4688,863.4177 Q67.8438,862.8395 67.25,862.5739 Q66.6563,862.2927 66.0313,862.2927 Q64.6875,862.2927 64,863.3708 Q63.3125,864.4333 63.3125,866.527 Q63.3125,868.6208 64,869.6989 Q64.6875,870.7614 66.0313,870.7614 Q66.6563,870.7614 67.25,870.4958 Q67.8438,870.2145 68.4688,869.6364 L68.4688,872.3552 Z " fill="#000000"/><text fill="#D9B8FF" font-family="Helvetica" font-size="17" lengthAdjust="spacing" textLength="402" x="84.5" y="872.5998">azure_network_virtual_appliance_sku_instances</text><line style="stroke:#000D19;stroke-width:0.5;" x1="51.5" x2="493.5" y1="886.6091" y2="886.6091"/><text fill="#D9B8FF" font-family="sans-serif" font-size="14" font-weight="bold" lengthAdjust="spacing" textLength="119" x="61.5" y="908.6042">instance_count</text><text fill="#D9B8FF" font-family="sans-serif" font-size="14" lengthAdjust="spacing" textLength="44" x="180.5" y="908.6042">: int64</text><text fill="#D9B8FF" font-family="sans-serif" font-size="14" font-weight="bold" lengthAdjust="spacing" textLength="78" x="61.5" y="934.9011">scale_unit</text><text fill="#D9B8FF" font-family="sans-serif" font-size="14" lengthAdjust="spacing" textLength="48" x="139.5" y="934.9011">: string</text></g><!--class microsoft_resource--><g id="elem_microsoft_resource"><rect codeLine="32" fill="#3D176E" height="100.3828" id="microsoft_resource" rx="2.5" ry="2.5" style="stroke:#000D19;stroke-width:0.5;" width="214" x="45.5" y="438.75"/><ellipse cx="66.8" cy="458.6445" fill="#ADD1B2" rx="11" ry="11" style="stroke:#181818;stroke-width:1.0;"/><path d="M69.7688,464.2852 Q69.1906,464.582 68.55,464.7227 Q67.9094,464.8789 67.2063,464.8789 Q64.7063,464.8789 63.3781,463.2383 Q62.0656,461.582 62.0656,458.457 Q62.0656,455.332 63.3781,453.6758 Q64.7063,452.0195 67.2063,452.0195 Q67.9094,452.0195 68.55,452.1758 Q69.2063,452.332 69.7688,452.6289 L69.7688,455.3477 Q69.1438,454.7695 68.55,454.5039 Q67.9563,454.2227 67.3313,454.2227 Q65.9875,454.2227 65.3,455.3008 Q64.6125,456.3633 64.6125,458.457 Q64.6125,460.5508 65.3,461.6289 Q65.9875,462.6914 67.3313,462.6914 Q67.9563,462.6914 68.55,462.4258 Q69.1438,462.1445 69.7688,461.5664 L69.7688,464.2852 Z " fill="#000000"/><text fill="#D9B8FF" font-family="Helvetica" font-size="17" lengthAdjust="spacing" textLength="158" x="87.2" y="464.5298">microsoft_resource</text><line style="stroke:#000D19;stroke-width:0.5;" x1="46.5" x2="258.5" y1="478.5391" y2="478.5391"/><text fill="#D9B8FF" font-family="sans-serif" font-size="14" font-weight="bold" lengthAdjust="spacing" textLength="35" x="56.5" y="500.5342">etag</text><text fill="#D9B8FF" font-family="sans-serif" font-size="14" lengthAdjust="spacing" textLength="48" x="91.5" y="500.5342">: string</text><text fill="#D9B8FF" font-family="sans-serif" font-size="14" font-weight="bold" lengthAdjust="spacing" textLength="144" x="56.5" y="526.8311">provisioning_state</text><text fill="#D9B8FF" font-family="sans-serif" font-size="14" lengthAdjust="spacing" textLength="48" x="200.5" y="526.8311">: string</text></g><!--class phantom_resource--><g id="elem_phantom_resource"><rect codeLine="36" fill="#3D176E" height="39.7891" id="phantom_resource" rx="2.5" ry="2.5" style="stroke:#000D19;stroke-width:0.5;" width="198" x="294.5" y="469.05"/><ellipse cx="309.5" cy="488.9445" fill="#ADD1B2" rx="11" ry="11" style="stroke:#181818;stroke-width:1.0;"/><path d="M312.4688,494.5852 Q311.8906,494.882 311.25,495.0227 Q310.6094,495.1789 309.9063,495.1789 Q307.4063,495.1789 306.0781,493.5383 Q304.7656,491.882 304.7656,488.757 Q304.7656,485.632 306.0781,483.9758 Q307.4063,482.3195 309.9063,482.3195 Q310.6094,482.3195 311.25,482.4758 Q311.9063,482.632 312.4688,482.9289 L312.4688,485.6477 Q311.8438,485.0695 311.25,484.8039 Q310.6563,484.5227 310.0313,484.5227 Q308.6875,484.5227 308,485.6008 Q307.3125,486.6633 307.3125,488.757 Q307.3125,490.8508 308,491.9289 Q308.6875,492.9914 310.0313,492.9914 Q310.6563,492.9914 311.25,492.7258 Q311.8438,492.4445 312.4688,491.8664 L312.4688,494.5852 Z " fill="#000000"/><text fill="#D9B8FF" font-family="Helvetica" font-size="17" lengthAdjust="spacing" textLength="156" x="328.5" y="494.8298">phantom_resource</text></g><!--class resource--><g id="elem_resource"><rect codeLine="39" fill="#3D176E" height="310.7578" id="resource" rx="2.5" ry="2.5" style="stroke:#000D19;stroke-width:0.5;" width="227" x="159" y="7"/><ellipse cx="227.75" cy="26.8945" fill="#ADD1B2" rx="11" ry="11" style="stroke:#181818;stroke-width:1.0;"/><path d="M230.7188,32.5352 Q230.1406,32.832 229.5,32.9727 Q228.8594,33.1289 228.1563,33.1289 Q225.6563,33.1289 224.3281,31.4883 Q223.0156,29.832 223.0156,26.707 Q223.0156,23.582 224.3281,21.9258 Q225.6563,20.2695 228.1563,20.2695 Q228.8594,20.2695 229.5,20.4258 Q230.1563,20.582 230.7188,20.8789 L230.7188,23.5977 Q230.0938,23.0195 229.5,22.7539 Q228.9063,22.4727 228.2813,22.4727 Q226.9375,22.4727 226.25,23.5508 Q225.5625,24.6133 225.5625,26.707 Q225.5625,28.8008 226.25,29.8789 Q226.9375,30.9414 228.2813,30.9414 Q228.9063,30.9414 229.5,30.6758 Q230.0938,30.3945 230.7188,29.8164 L230.7188,32.5352 Z " fill="#000000"/><text fill="#D9B8FF" font-family="Helvetica" font-size="17" lengthAdjust="spacing" textLength="71" x="253.25" y="32.7798">resource</text><line style="stroke:#000D19;stroke-width:0.5;" x1="160" x2="385" y1="46.7891" y2="46.7891"/><text fill="#D9B8FF" font-family="sans-serif" font-size="14" font-weight="bold" lengthAdjust="spacing" textLength="29" x="170" y="68.7842">age</text><text fill="#D9B8FF" font-family="sans-serif" font-size="14" lengthAdjust="spacing" textLength="66" x="199" y="68.7842">: duration</text><text fill="#D9B8FF" font-family="sans-serif" font-size="14" font-weight="bold" lengthAdjust="spacing" textLength="43" x="170" y="95.0811">atime</text><text fill="#D9B8FF" font-family="sans-serif" font-size="14" lengthAdjust="spacing" textLength="70" x="213" y="95.0811">: datetime</text><text fill="#D9B8FF" font-family="sans-serif" font-size="14" font-weight="bold" lengthAdjust="spacing" textLength="43" x="170" y="121.3779">ctime</text><text fill="#D9B8FF" font-family="sans-serif" font-size="14" lengthAdjust="spacing" textLength="70" x="213" y="121.3779">: datetime</text><text fill="#D9B8FF" font-family="sans-serif" font-size="14" font-weight="bold" lengthAdjust="spacing" textLength="14" x="170" y="147.6748">id</text><text fill="#D9B8FF" font-family="sans-serif" font-size="14" lengthAdjust="spacing" textLength="48" x="184" y="147.6748">: string</text><text fill="#D9B8FF" font-family="sans-serif" font-size="14" font-weight="bold" lengthAdjust="spacing" textLength="33" x="170" y="173.9717">kind</text><text fill="#D9B8FF" font-family="sans-serif" font-size="14" lengthAdjust="spacing" textLength="48" x="203" y="173.9717">: string</text><text fill="#D9B8FF" font-family="sans-serif" font-size="14" font-weight="bold" lengthAdjust="spacing" textLength="90" x="170" y="200.2686">last_access</text><text fill="#D9B8FF" font-family="sans-serif" font-size="14" lengthAdjust="spacing" textLength="66" x="260" y="200.2686">: duration</text><text fill="#D9B8FF" font-family="sans-serif" font-size="14" font-weight="bold" lengthAdjust="spacing" textLength="90" x="170" y="226.5654">last_update</text><text fill="#D9B8FF" font-family="sans-serif" font-size="14" lengthAdjust="spacing" textLength="66" x="260" y="226.5654">: duration</text><text fill="#D9B8FF" font-family="sans-serif" font-size="14" font-weight="bold" lengthAdjust="spacing" textLength="48" x="170" y="252.8623">mtime</text><text fill="#D9B8FF" font-family="sans-serif" font-size="14" lengthAdjust="spacing" textLength="70" x="218" y="252.8623">: datetime</text><text fill="#D9B8FF" font-family="sans-serif" font-size="14" font-weight="bold" lengthAdjust="spacing" textLength="43" x="170" y="279.1592">name</text><text fill="#D9B8FF" font-family="sans-serif" font-size="14" lengthAdjust="spacing" textLength="48" x="213" y="279.1592">: string</text><text fill="#D9B8FF" font-family="sans-serif" font-size="14" font-weight="bold" lengthAdjust="spacing" textLength="34" x="170" y="305.4561">tags</text><text fill="#D9B8FF" font-family="sans-serif" font-size="14" lengthAdjust="spacing" textLength="171" x="204" y="305.4561">: dictionary[string, string]</text></g><!--link azure_network_virtual_appliance_sku to azure_network_virtual_appliance_sku_instances--><g id="link_azure_network_virtual_appliance_sku_azure_network_virtual_appliance_sku_instances"><path codeLine="51" d="M272.5,786.89 C272.5,806.53 272.5,821.93 272.5,840.54 " fill="none" id="azure_network_virtual_appliance_sku-to-azure_network_virtual_appliance_sku_instances" style="stroke:#FFAF37;stroke-width:2.0;"/><polygon fill="#FFAF37" points="272.5,846.54,276.5,837.54,272.5,841.54,268.5,837.54,272.5,846.54" style="stroke:#FFAF37;stroke-width:2.0;"/></g><!--reverse link microsoft_resource to azure_network_virtual_appliance_sku--><g id="link_microsoft_resource_azure_network_virtual_appliance_sku"><path codeLine="52" d="M186.3535,555.5363 C204.4535,590.6163 220.61,621.93 240.08,659.65 " fill="none" id="microsoft_resource-backto-azure_network_virtual_appliance_sku" style="stroke:#FFAF37;stroke-width:2.0;"/><polygon fill="none" points="178.1,539.54,181.0214,558.2874,191.6856,552.7851,178.1,539.54" style="stroke:#FFAF37;stroke-width:2.0;"/></g><!--reverse link phantom_resource to azure_network_virtual_appliance_sku--><g id="link_phantom_resource_azure_network_virtual_appliance_sku"><path codeLine="53" d="M375.2921,524.9481 C358.3621,557.4881 331.43,609.22 305.16,659.71 " fill="none" id="phantom_resource-backto-azure_network_virtual_appliance_sku" style="stroke:#FFAF37;stroke-width:2.0;"/><polygon fill="none" points="383.6,508.98,369.9694,522.1788,380.6148,527.7174,383.6,508.98" style="stroke:#FFAF37;stroke-width:2.0;"/></g><!--reverse link resource to microsoft_resource--><g id="link_resource_microsoft_resource"><path codeLine="54" d="M209.0667,334.9426 C192.9467,378.5326 182.81,405.98 170.81,438.42 " fill="none" id="resource-backto-microsoft_resource" style="stroke:#FFAF37;stroke-width:2.0;"/><polygon fill="none" points="215.31,318.06,203.4391,332.8614,214.6942,337.0237,215.31,318.06" style="stroke:#FFAF37;stroke-width:2.0;"/></g><!--reverse link resource to phantom_resource--><g id="link_resource_phantom_resource"><path codeLine="55" d="M336.449,334.9256 C358.729,394.6756 375.23,438.95 386.42,468.96 " fill="none" id="resource-backto-phantom_resource" style="stroke:#FFAF37;stroke-width:2.0;"/><polygon fill="none" points="330.16,318.06,330.8271,337.0219,342.0708,332.8293,330.16,318.06" style="stroke:#FFAF37;stroke-width:2.0;"/></g><!--SRC=[bLDTQzj047pNhn3aJLHW9sqSXn983QLz2QNfMmXYVRUI3qbtOcybuxJzxpr9Jgol9EgBqStEpipkdNTAeezvmGS_ntoBP3sRAbq0GUxV4fdzncI6_BCuXlXYDIn-DPhV9Tn1Zlutp2fa9M38-BLJ8jLehN_UANq1aIPaIYrRUIRGrfLGSuUroS3QMsPIsvAn4qQkjrTnF6GEHSykv79rYIEQ8Obqf2mM2xbS3odlMhqvzmlZNZsXl-mkxSumZcAEB1hMcobhHYVaQD3d-giPVu2KIYV-fmxsiyr46gc7t-z0cdtDZY6pNHlBI6ZuKE1cD1MkhsIycYH_VutiYNfrFZoLX956tXjAeqeHbv15K1IP0Yqmicdf__Q202fG6MmpXmXmlwLMR8FWUev0fBJb-c0V7djIbVkJAACR7UkUdauQGeLQ6Zg1tj_vOKzUJUpdKoJS1hYML9elFxhAQOm9erm9CjR4715QKvB0HWqPaWux20eobQf7SCV8EJ5EY1Kxq6pohjHBhISFITCkIm9scZN2Acyn9rr_EqnCO4hsOhbtq0US5qSWt5RimA6fb8KyHkzKyWaV3JdsXDr2MaKbwZQWmqDR-t3aFBfHvxonCBpvl-lr9kxeyvym3EV8UACxcTywQ1d763A6Nju_]--></g></svg>

<svg xmlns="http://www.w3.org/2000/svg" width="545" height="954" viewBox="0 0 545 954"><rect width="531" height="126.68" x="7" y="660.14" fill="#3D176E" rx="2.5" ry="2.5" style="stroke:#000d19;stroke-width:.5"/><circle cx="105.75" cy="680.034" r="11" fill="#ADD1B2" style="stroke:#181818;stroke-width:1"/><path d="M108.719 685.675q-.578.297-1.219.438-.64.156-1.344.156-2.5 0-3.828-1.64-1.312-1.657-1.312-4.782t1.312-4.781q1.328-1.657 3.828-1.657.703 0 1.344.157.656.156 1.219.453v2.719q-.625-.579-1.219-.844-.594-.281-1.219-.281-1.344 0-2.031 1.078-.687 1.062-.687 3.156t.687 3.172q.688 1.062 2.031 1.062.625 0 1.219-.265.594-.282 1.219-.86z"/><text x="131.25" y="685.92" fill="#D9B8FF" font-family="Helvetica" font-size="17" textLength="315">azure_network_virtual_appliance_sku</text><path d="M8 699.929h529" style="stroke:#000d19;stroke-width:.5"/><text x="18" y="721.924" fill="#D9B8FF" font-family="sans-serif" font-size="14" font-weight="bold" textLength="162">available_scale_units</text><text x="180" y="721.924" fill="#D9B8FF" font-family="sans-serif" font-size="14" textLength="347">: azure_network_virtual_appliance_sku_instances[]</text><text x="18" y="748.221" fill="#D9B8FF" font-family="sans-serif" font-size="14" font-weight="bold" textLength="143">available_versions</text><text x="161" y="748.221" fill="#D9B8FF" font-family="sans-serif" font-size="14" textLength="58">: string[]</text><text x="18" y="774.518" fill="#D9B8FF" font-family="sans-serif" font-size="14" font-weight="bold" textLength="56">vendor</text><text x="74" y="774.518" fill="#D9B8FF" font-family="sans-serif" font-size="14" textLength="48">: string</text><rect width="444" height="100.383" x="50.5" y="846.82" fill="#3D176E" rx="2.5" ry="2.5" style="stroke:#000d19;stroke-width:.5"/><circle cx="65.5" cy="866.715" r="11" fill="#ADD1B2" style="stroke:#181818;stroke-width:1"/><path d="M68.469 872.355q-.578.297-1.219.438-.64.156-1.344.156-2.5 0-3.828-1.64-1.312-1.657-1.312-4.782t1.312-4.781q1.328-1.656 3.828-1.656.703 0 1.344.156.656.156 1.219.453v2.719q-.625-.578-1.219-.844-.594-.281-1.219-.281-1.344 0-2.031 1.078-.687 1.062-.687 3.156t.687 3.172q.688 1.062 2.031 1.062.625 0 1.219-.265.594-.281 1.219-.86z"/><text x="84.5" y="872.6" fill="#D9B8FF" font-family="Helvetica" font-size="17" textLength="402">azure_network_virtual_appliance_sku_instances</text><path d="M51.5 886.609h442" style="stroke:#000d19;stroke-width:.5"/><text x="61.5" y="908.604" fill="#D9B8FF" font-family="sans-serif" font-size="14" font-weight="bold" textLength="119">instance_count</text><text x="180.5" y="908.604" fill="#D9B8FF" font-family="sans-serif" font-size="14" textLength="44">: int64</text><text x="61.5" y="934.901" fill="#D9B8FF" font-family="sans-serif" font-size="14" font-weight="bold" textLength="78">scale_unit</text><text x="139.5" y="934.901" fill="#D9B8FF" font-family="sans-serif" font-size="14" textLength="48">: string</text><rect width="214" height="100.383" x="45.5" y="438.75" fill="#3D176E" rx="2.5" ry="2.5" style="stroke:#000d19;stroke-width:.5"/><circle cx="66.8" cy="458.644" r="11" fill="#ADD1B2" style="stroke:#181818;stroke-width:1"/><path d="M69.769 464.285q-.578.297-1.219.438-.64.156-1.344.156-2.5 0-3.828-1.64-1.312-1.657-1.312-4.782t1.312-4.781q1.328-1.656 3.828-1.656.703 0 1.344.156.656.156 1.219.453v2.719q-.625-.579-1.219-.844-.594-.281-1.219-.281-1.344 0-2.031 1.078-.687 1.062-.687 3.156t.687 3.172q.688 1.062 2.031 1.062.625 0 1.219-.265.594-.281 1.219-.86z"/><text x="87.2" y="464.53" fill="#D9B8FF" font-family="Helvetica" font-size="17" textLength="158">microsoft_resource</text><path d="M46.5 478.539h212" style="stroke:#000d19;stroke-width:.5"/><text x="56.5" y="500.534" fill="#D9B8FF" font-family="sans-serif" font-size="14" font-weight="bold" textLength="35">etag</text><text x="91.5" y="500.534" fill="#D9B8FF" font-family="sans-serif" font-size="14" textLength="48">: string</text><text x="56.5" y="526.831" fill="#D9B8FF" font-family="sans-serif" font-size="14" font-weight="bold" textLength="144">provisioning_state</text><text x="200.5" y="526.831" fill="#D9B8FF" font-family="sans-serif" font-size="14" textLength="48">: string</text><rect width="198" height="39.789" x="294.5" y="469.05" fill="#3D176E" rx="2.5" ry="2.5" style="stroke:#000d19;stroke-width:.5"/><circle cx="309.5" cy="488.945" r="11" fill="#ADD1B2" style="stroke:#181818;stroke-width:1"/><path d="M312.469 494.585q-.578.297-1.219.438-.64.156-1.344.156-2.5 0-3.828-1.64-1.312-1.657-1.312-4.782t1.312-4.781q1.328-1.656 3.828-1.656.703 0 1.344.156.656.156 1.219.453v2.719q-.625-.579-1.219-.844-.594-.281-1.219-.281-1.344 0-2.031 1.078-.687 1.062-.687 3.156t.687 3.172q.688 1.062 2.031 1.062.625 0 1.219-.265.594-.281 1.219-.86z"/><text x="328.5" y="494.83" fill="#D9B8FF" font-family="Helvetica" font-size="17" textLength="156">phantom_resource</text><rect width="227" height="310.758" x="159" y="7" fill="#3D176E" rx="2.5" ry="2.5" style="stroke:#000d19;stroke-width:.5"/><circle cx="227.75" cy="26.895" r="11" fill="#ADD1B2" style="stroke:#181818;stroke-width:1"/><path d="M230.719 32.535q-.578.297-1.219.438-.64.156-1.344.156-2.5 0-3.828-1.64-1.312-1.657-1.312-4.782t1.312-4.781q1.328-1.656 3.828-1.656.703 0 1.344.156.656.156 1.219.453v2.719q-.625-.578-1.219-.844-.594-.281-1.219-.281-1.344 0-2.031 1.078-.687 1.062-.687 3.156t.687 3.172q.688 1.062 2.031 1.062.625 0 1.219-.265.594-.281 1.219-.86z"/><text x="253.25" y="32.78" fill="#D9B8FF" font-family="Helvetica" font-size="17" textLength="71">resource</text><path d="M160 46.789h225" style="stroke:#000d19;stroke-width:.5"/><text x="170" y="68.784" fill="#D9B8FF" font-family="sans-serif" font-size="14" font-weight="bold" textLength="29">age</text><text x="199" y="68.784" fill="#D9B8FF" font-family="sans-serif" font-size="14" textLength="66">: duration</text><text x="170" y="95.081" fill="#D9B8FF" font-family="sans-serif" font-size="14" font-weight="bold" textLength="43">atime</text><text x="213" y="95.081" fill="#D9B8FF" font-family="sans-serif" font-size="14" textLength="70">: datetime</text><text x="170" y="121.378" fill="#D9B8FF" font-family="sans-serif" font-size="14" font-weight="bold" textLength="43">ctime</text><text x="213" y="121.378" fill="#D9B8FF" font-family="sans-serif" font-size="14" textLength="70">: datetime</text><text x="170" y="147.675" fill="#D9B8FF" font-family="sans-serif" font-size="14" font-weight="bold" textLength="14">id</text><text x="184" y="147.675" fill="#D9B8FF" font-family="sans-serif" font-size="14" textLength="48">: string</text><text x="170" y="173.972" fill="#D9B8FF" font-family="sans-serif" font-size="14" font-weight="bold" textLength="33">kind</text><text x="203" y="173.972" fill="#D9B8FF" font-family="sans-serif" font-size="14" textLength="48">: string</text><text x="170" y="200.269" fill="#D9B8FF" font-family="sans-serif" font-size="14" font-weight="bold" textLength="90">last_access</text><text x="260" y="200.269" fill="#D9B8FF" font-family="sans-serif" font-size="14" textLength="66">: duration</text><text x="170" y="226.565" fill="#D9B8FF" font-family="sans-serif" font-size="14" font-weight="bold" textLength="90">last_update</text><text x="260" y="226.565" fill="#D9B8FF" font-family="sans-serif" font-size="14" textLength="66">: duration</text><text x="170" y="252.862" fill="#D9B8FF" font-family="sans-serif" font-size="14" font-weight="bold" textLength="48">mtime</text><text x="218" y="252.862" fill="#D9B8FF" font-family="sans-serif" font-size="14" textLength="70">: datetime</text><text x="170" y="279.159" fill="#D9B8FF" font-family="sans-serif" font-size="14" font-weight="bold" textLength="43">name</text><text x="213" y="279.159" fill="#D9B8FF" font-family="sans-serif" font-size="14" textLength="48">: string</text><text x="170" y="305.456" fill="#D9B8FF" font-family="sans-serif" font-size="14" font-weight="bold" textLength="34">tags</text><text x="204" y="305.456" fill="#D9B8FF" font-family="sans-serif" font-size="14" textLength="171">: dictionary[string, string]</text><path fill="none" d="M272.5 786.89v53.65" style="stroke:#ffaf37;stroke-width:2"/><path fill="#FFAF37" d="m272.5 846.54 4-9-4 4-4-4z" style="stroke:#ffaf37;stroke-width:2"/><path fill="none" d="M186.354 555.536c18.1 35.08 34.256 66.394 53.726 104.114M178.1 539.54l2.921 18.747 10.665-5.502zm197.192-14.592c-16.93 32.54-43.862 84.272-70.132 134.762m78.44-150.73-13.63 13.199 10.645 5.538zM209.067 334.943c-16.12 43.59-26.257 71.037-38.257 103.477m44.5-120.36-11.87 14.801 11.254 4.163zm121.139 16.866c22.28 59.75 38.781 104.024 49.971 134.034m-56.26-150.9.667 18.962 11.244-4.193z" style="stroke:#ffaf37;stroke-width:2"/></svg>
